_site/img/search.svg

<svg width="24" height="24" viewBox="0 0 24 24" fill="none" xmlns="http://www.w3.org/2000/svg">
<path d="M15.6706 14.1502H14.8699L14.5861 13.8766C15.8024 12.4575 16.4309 10.5216 16.0862 8.46394C15.6098 5.64613 13.2583 3.39594 10.4202 3.05131C6.13266 2.52424 2.52424 6.13266 3.05131 10.4202C3.39594 13.2583 5.64613 15.6098 8.46394 16.0862C10.5216 16.4308 12.4575 15.8024 13.8766 14.5861L14.1502 14.8699V15.6706L18.4581 19.9785C18.8736 20.394 19.5527 20.394 19.9683 19.9785C20.3839 19.5629 20.3839 18.8838 19.9683 18.4682L15.6706 14.1502ZM9.58904 14.1502C7.06518 14.1502 5.02784 12.1129 5.02784 9.58904C5.02784 7.06517 7.06518 5.02784 9.58904 5.02784C12.1129 5.02784 14.1502 7.06517 14.1502 9.58904C14.1502 12.1129 12.1129 14.1502 9.58904 14.1502Z" fill="#202122"/>
</svg>

<svg xmlns="http://www.w3.org/2000/svg" width="24" height="24" fill="none"><path fill="#202122" d="M15.67 14.15h-.8l-.284-.273a6.589 6.589 0 0 0 1.5-5.413c-.476-2.818-2.828-5.068-5.666-5.413a6.593 6.593 0 0 0-7.369 7.37c.345 2.837 2.595 5.189 5.413 5.665a6.589 6.589 0 0 0 5.413-1.5l.273.284v.8l4.308 4.309a1.07 1.07 0 0 0 1.51 0 1.07 1.07 0 0 0 0-1.51l-4.297-4.319Zm-6.081 0A4.555 4.555 0 0 1 5.028 9.59a4.555 4.555 0 0 1 4.561-4.561 4.555 4.555 0 0 1 4.561 4.561A4.555 4.555 0 0 1 9.59 14.15Z"/></svg>
